assets/icons/Outline/Profile.svg

<svg width="24" height="24" viewBox="0 0 24 24" fill="none" xmlns="http://www.w3.org/2000/svg">
<mask id="mask0_10_1643" style="mask-type:alpha" maskUnits="userSpaceOnUse" x="4" y="14" width="16" height="8">
<path fill-rule="evenodd" clip-rule="evenodd" d="M4 14.4961H19.8399V21.8701H4V14.4961Z" fill="white"/>
</mask>
<g mask="url(#mask0_10_1643)">
<path fill-rule="evenodd" clip-rule="evenodd" d="M11.9209 15.9961C7.6599 15.9961 5.4999 16.7281 5.4999 18.1731C5.4999 19.6311 7.6599 20.3701 11.9209 20.3701C16.1809 20.3701 18.3399 19.6381 18.3399 18.1931C18.3399 16.7351 16.1809 15.9961 11.9209 15.9961M11.9209 21.8701C9.9619 21.8701 3.9999 21.8701 3.9999 18.1731C3.9999 14.8771 8.5209 14.4961 11.9209 14.4961C13.8799 14.4961 19.8399 14.4961 19.8399 18.1931C19.8399 21.4891 15.3199 21.8701 11.9209 21.8701" fill="#AFB7C4"/>
</g>
<mask id="mask1_10_1643" style="mask-type:alpha" maskUnits="userSpaceOnUse" x="6" y="2" width="12" height="11">
<path fill-rule="evenodd" clip-rule="evenodd" d="M6.60987 2.00012H17.2299V12.6187H6.60987V2.00012Z" fill="white"/>
</mask>
<g mask="url(#mask1_10_1643)">
<path fill-rule="evenodd" clip-rule="evenodd" d="M11.9209 3.42769C9.7799 3.42769 8.0379 5.16869 8.0379 7.30969C8.0309 9.44369 9.7599 11.1837 11.8919 11.1917L11.9209 11.9057V11.1917C14.0609 11.1917 15.8019 9.44969 15.8019 7.30969C15.8019 5.16869 14.0609 3.42769 11.9209 3.42769M11.9209 12.6187H11.8889C8.9669 12.6097 6.5999 10.2267 6.6099 7.30669C6.6099 4.3817 8.9919 1.99969 11.9209 1.99969C14.8489 1.99969 17.2299 4.38169 17.2299 7.30969C17.2299 10.2377 14.8489 12.6187 11.9209 12.6187" fill="#AFB7C4"/>
</g>
</svg>

<?xml version="1.0" encoding="utf-8"?>
<!-- Generator: Adobe Illustrator 25.0.0, SVG Export Plug-In . SVG Version: 6.00 Build 0)  -->
<svg version="1.1" id="Layer_1" xmlns="http://www.w3.org/2000/svg" xmlns:xlink="http://www.w3.org/1999/xlink" x="0px" y="0px"
	 viewBox="0 0 24 24" style="enable-background:new 0 0 24 24;" xml:space="preserve">
<style type="text/css">
	.st0{fill-rule:evenodd;clip-rule:evenodd;fill:#FFFFFF;filter:url(#Adobe_OpacityMaskFilter);}
	.st1{mask:url(#mask0_344_8162_1_);}
	.st2{fill-rule:evenodd;clip-rule:evenodd;fill:#AFB7C4;}
	.st3{fill-rule:evenodd;clip-rule:evenodd;fill:#FFFFFF;filter:url(#Adobe_OpacityMaskFilter_1_);}
	.st4{mask:url(#mask1_344_8162_1_);}
</style>
<defs>
	<filter id="Adobe_OpacityMaskFilter" filterUnits="userSpaceOnUse" x="4" y="14.5" width="15.8" height="7.4">
		<feColorMatrix  type="matrix" values="1 0 0 0 0  0 1 0 0 0  0 0 1 0 0  0 0 0 1 0"/>
	</filter>
</defs>
<mask maskUnits="userSpaceOnUse" x="4" y="14.5" width="15.8" height="7.4" id="mask0_344_8162_1_">
	<path class="st0" d="M4,14.5h15.8v7.4H4V14.5z"/>
</mask>
<g class="st1">
	<path class="st2" d="M11.9,16c-4.3,0-6.4,0.7-6.4,2.2c0,1.5,2.2,2.2,6.4,2.2c4.3,0,6.4-0.7,6.4-2.2C18.3,16.7,16.2,16,11.9,16z
		 M11.9,21.9c-2,0-7.9,0-7.9-3.7c0-3.3,4.5-3.7,7.9-3.7c2,0,7.9,0,7.9,3.7C19.8,21.5,15.3,21.9,11.9,21.9z"/>
</g>
<defs>
	<filter id="Adobe_OpacityMaskFilter_1_" filterUnits="userSpaceOnUse" x="6.6" y="2" width="10.6" height="10.6">
		<feColorMatrix  type="matrix" values="1 0 0 0 0  0 1 0 0 0  0 0 1 0 0  0 0 0 1 0"/>
	</filter>
</defs>
<mask maskUnits="userSpaceOnUse" x="6.6" y="2" width="10.6" height="10.6" id="mask1_344_8162_1_">
	<path class="st3" d="M6.6,2h10.6v10.6H6.6V2z"/>
</mask>
<g class="st4">
	<path class="st2" d="M11.9,3.4C9.8,3.4,8,5.2,8,7.3c0,2.1,1.7,3.9,3.9,3.9l0,0.7v-0.7c2.1,0,3.9-1.7,3.9-3.9
		C15.8,5.2,14.1,3.4,11.9,3.4z M11.9,12.6L11.9,12.6c-3,0-5.3-2.4-5.3-5.3C6.6,4.4,9,2,11.9,2c2.9,0,5.3,2.4,5.3,5.3
		C17.2,10.2,14.8,12.6,11.9,12.6z"/>
</g>
</svg>
